!!!OTL: 2149. Alles ist vergaenglich.
!!!ODT: 1857
!!!ARE: Europa, Mitteleuropa, Deutschland, Altmark
!!!SCT: E2149
!!!TXL: @@DE
!!!YEM: Copyright 1995, estate of Helmut Schaffrath.
**kern	**text
*ICvox	*
*M4/4	*
*met(c)	*
*k[b-]	*
*F:	*
=1	=1
!LO:TX:a:t=	!
!LO:TX:a:t=Altmärkiſch 1857.	!
{4.f	Al-
8g	-les
4a	iſt
4a	ver-
=2	=2
(4.a	-gän-
8g)	.
4f	-lich,
4r}	.
=3	=3
{4g	währt
4g	nur
4e	kur-
8eL	-ʒe
8gJ	.
=4	=4
2f	Ʒeit
4r}	.
=||	=||
{4a	die
=5	=5
4g	Ar-
4b-/	-men
4e	und
4e	die
=6	=6
2f	Rei-
4a}	-chen
{4a	.
=7	=7
4g	müſ-
4g	-ſen
4e	al-
4c	-le
=8	=8
2f	wei-
4a	-chen
4r}	.
=9	=9
{8aL	hin
8gJ	.
4g	ʒur
4e	E-
4e	-wig-
=10	=10
2.f	-keit.
4r}	.
==	==
!!!AGN: geistlich, Moral - Lied, Vergaenglichkeit
!!!ONB: ESAC (Essen Associative Code) Database: ERK3
!!!AMT: simple quadruple
!!!AIN: vox
!!!EED: Helmut Schaffrath
!!!EEV: 1.0
!!!GTL: 6. Lieder von den Letzten Dinen: Tod, Begraebniss, Auferstehung, Weltgericht, ewige Seligkeit.
!!!URL-scan: https://rosdok.uni-rostock.de/mcrviewer/recordIdentifier/rosdok_ppn745177999/iview2/phys_0850.iview2?x=184.69118446297625&y=1540.1246486585587&scale=0.7014306698522895&rotation=0&layout=singlePageLayout
!!!ENC: Anna Maria Matuszewska
!!!EEV: 2025/14/01
*-	*-
